; generated by Slic3r 1.2.9 on 2017-11-07 at 21:25:15

; external perimeters extrusion width = 0.40mm
; perimeters extrusion width = 0.42mm
; infill extrusion width = 0.42mm
; solid infill extrusion width = 0.42mm
; top infill extrusion width = 0.42mm

M107
M190 S65 ; set bed temperature
M104 S200 ; set temperature
G28 ; home all axes

M109 S200 ; wait for temperature to be reached
G21 ; set units to millimeters
G90 ; use absolute coordinates
M82 ; use absolute distances for extrusion
G92 E0
G1 Z0.600 F7800.000
G1 X0.000 Y16.464 F7800.000
G1 X-18.400 Y16.464 E2.18528 F1800.000
G1 X-21.294 Y16.066 E2.53217
G1 X-23.972 Y14.901 E2.87907
G1 X-26.237 Y13.056 E3.22596
G1 X-27.919 Y10.668 E3.57286
G1 X-28.893 Y7.915 E3.91975
G1 X-29.114 Y5.750 E4.17821
G1 X-29.114 Y-14.750 E6.61289
G1 X-28.716 Y-17.644 E6.95979
G1 X-27.551 Y-20.322 E7.30668
G1 X-25.706 Y-22.587 E7.65358
G1 X-23.318 Y-24.269 E8.00047
G1 X-20.565 Y-25.243 E8.34736
G1 X-18.400 Y-25.464 E8.60582
G1 X18.400 Y-25.464 E12.97638
G1 X21.294 Y-25.066 E13.32327
G1 X23.972 Y-23.901 E13.67017 F1800.000
G1 X26.237 Y-22.056 E14.01706
G1 X27.919 Y-19.668 E14.36396
G1 X28.893 Y-16.915 E14.71085
G1 X29.114 Y-14.750 E14.96930
G1 X29.114 Y5.750 E17.40399
G1 X28.716 Y8.644 E17.75089
G1 X27.551 Y11.322 E18.09778
G1 X25.706 Y13.587 E18.44467
G1 X23.318 Y15.269 E18.79157
G1 X20.565 Y16.243 E19.13846
G1 X18.400 Y16.464 E19.39692
G1 X0.060 Y16.464 E21.57507
G1 X0.000 Y13.963 F7800.000
G1 X-21.802 Y13.963 E24.16437 F1800.000
G1 X-26.613 Y9.152 E24.97242
G1 X-26.613 Y-18.152 E28.21515
G1 X-21.802 Y-22.963 E29.02320
G1 X-7.098 Y-22.963 E30.76949
G1 X-2.287 Y-18.152 E31.57754
G1 X-2.287 Y-9.381 E32.61919 F1800.000
G1 X-1.869 Y-8.963 E32.68945
G1 X1.869 Y-8.963 E33.13336
G1 X2.287 Y-9.381 E33.20362
G1 X2.287 Y-18.152 E34.24527
G1 X7.098 Y-22.963 E35.05332
G1 X21.802 Y-22.963 E36.79961
G1 X26.613 Y-18.152 E37.60766
G1 X26.613 Y9.152 E40.85039
G1 X21.802 Y13.963 E41.65844
G1 X0.060 Y13.963 E44.24061
G1 X0.000 Y13.249 F7800.000
G1 X-21.506 Y13.249 E46.79478 F1800.000
G1 X-25.899 Y8.856 E47.53256
G1 X-25.899 Y-17.856 E50.70503
G1 X-21.506 Y-22.249 E51.44281
G1 X-7.394 Y-22.249 E53.11884
G1 X-3.001 Y-17.856 E53.85662 F1800.000
G1 X-3.001 Y-8.667 E54.94796
G1 X-2.583 Y-8.249 E55.01822
G1 X2.583 Y-8.249 E55.63176
G1 X3.001 Y-8.667 E55.70202
G1 X3.001 Y-17.856 E56.79336
G1 X7.394 Y-22.249 E57.53114
G1 X21.506 Y-22.249 E59.20717
G1 X25.899 Y-17.856 E59.94495
G1 X25.899 Y8.856 E63.11742
G1 X21.506 Y13.249 E63.85520
G1 X0.060 Y13.249 E66.40224
G1 X0.000 Y12.535 F7800.000
G1 X-21.210 Y12.535 E68.92128 F1800.000
G1 X-25.185 Y8.560 E69.58880
G1 X-25.185 Y-17.560 E72.69100
G1 X-21.210 Y-21.535 E73.35852
G1 X-7.690 Y-21.535 E74.96428
G1 X-3.715 Y-17.560 E75.63179
G1 X-3.715 Y-7.953 E76.77282 F1800.000
G1 X-3.297 Y-7.535 E76.84308
G1 X3.297 Y-7.535 E77.62625
G1 X3.715 Y-7.953 E77.69652
G1 X3.715 Y-17.560 E78.83754
G1 X7.690 Y-21.535 E79.50506
G1 X21.210 Y-21.535 E81.11082
G1 X25.185 Y-17.560 E81.77833
G1 X25.185 Y8.560 E84.88054
G1 X21.210 Y12.535 E85.54805
G1 X0.060 Y12.535 E88.05996
G1 X0.000 Y11.820 F7800.000
G1 X-20.914 Y11.820 E90.54387 F1800.000
G1 X-24.470 Y8.264 E91.14112
G1 X-24.470 Y-17.264 E94.17306
G1 X-20.914 Y-20.820 E94.77031
G1 X-7.986 Y-20.820 E96.30581
G1 X-4.430 Y-17.264 E96.90306 F1800.000
G1 X-4.430 Y-7.239 E98.09376
G1 X-4.011 Y-6.820 E98.16403
G1 X4.011 Y-6.820 E99.11684
G1 X4.430 Y-7.239 E99.18710
G1 X4.430 Y-17.264 E100.37781
G1 X7.986 Y-20.820 E100.97506
G1 X20.914 Y-20.820 E102.51056
G1 X24.470 Y-17.264 E103.10781
G1 X24.470 Y8.264 E106.13974
G1 X20.914 Y11.820 E106.73700
G1 X0.060 Y11.820 E109.21378
G1 X0.000 Y11.106 F7800.000
G1 X-20.619 Y11.106 E111.66255 F1800.000
G1 X-23.756 Y7.969 E112.18953
G1 X-23.756 Y-16.969 E115.15121
G1 X-20.619 Y-20.106 E115.67819
G1 X-8.281 Y-20.106 E117.14343
G1 X-5.144 Y-16.969 E117.67041
G1 X-5.144 Y-6.525 E118.91080 F1800.000
G1 X-4.725 Y-6.106 E118.98107
G1 X4.725 Y-6.106 E120.10351
G1 X5.144 Y-6.525 E120.17377
G1 X5.144 Y-16.969 E121.41417
G1 X8.281 Y-20.106 E121.94115
G1 X20.619 Y-20.106 E123.40638
G1 X23.756 Y-16.969 E123.93337
G1 X23.756 Y7.969 E126.89504
G1 X20.619 Y11.106 E127.42203
G1 X0.060 Y11.106 E129.86368
G1 X0.000 Y10.392 F7800.000
G1 X-20.323 Y10.392 E132.27732 F1800.000
G1 X-23.042 Y7.673 E132.73404
G1 X-23.042 Y-16.673 E135.62545
G1 X-20.323 Y-19.392 E136.08217
G1 X-8.577 Y-19.392 E137.47713
G1 X-5.858 Y-16.673 E137.93386 F1800.000
G1 X-5.858 Y-5.810 E139.22393
G1 X-5.440 Y-5.392 E139.29420
G1 X5.440 Y-5.392 E140.58627
G1 X5.858 Y-5.810 E140.65654
G1 X5.858 Y-16.673 E141.94661
G1 X8.577 Y-19.392 E142.40334
G1 X20.323 Y-19.392 E143.79830
G1 X23.042 Y-16.673 E144.25503
G1 X23.042 Y7.673 E147.14643
G1 X20.323 Y10.392 E147.60315
G1 X0.060 Y10.392 E150.00967
G1 X0.000 Y9.678 F7800.000
G1 X-20.027 Y9.678 E152.38818 F1800.000
G1 X-22.328 Y7.377 E152.77463
G1 X-22.328 Y-16.377 E155.59578
G1 X-20.027 Y-18.678 E155.98223
G1 X-8.873 Y-18.678 E157.30693
G1 X-6.572 Y-16.377 E157.69339
G1 X-6.572 Y-5.096 E159.03315 F1800.000
G1 X-6.154 Y-4.678 E159.10342
G1 X6.154 Y-4.678 E160.56513
G1 X6.572 Y-5.096 E160.63539
G1 X6.572 Y-16.377 E161.97515
G1 X8.873 Y-18.678 E162.36161
G1 X20.027 Y-18.678 E163.68631
G1 X22.328 Y-16.377 E164.07277
G1 X22.328 Y7.377 E166.89391
G1 X20.027 Y9.678 E167.28037
G1 X0.060 Y9.678 E169.65175
G1 X0.000 Y8.964 F7800.000
G1 X-19.731 Y8.964 E171.99513 F1800.000
G1 X-21.614 Y7.081 E172.31132
G1 X-21.614 Y-16.081 E175.06220
G1 X-19.731 Y-17.964 E175.37839
G1 X-9.169 Y-17.964 E176.63282
G1 X-7.286 Y-16.081 E176.94902 F1800.000
G1 X-7.286 Y-4.382 E178.33846
G1 X-6.868 Y-3.964 E178.40873
G1 X6.868 Y-3.964 E180.04007
G1 X7.286 Y-4.382 E180.11034
G1 X7.286 Y-16.081 E181.49978
G1 X9.169 Y-17.964 E181.81597
G1 X19.731 Y-17.964 E183.07041
G1 X21.614 Y-16.081 E183.38660
G1 X21.614 Y7.081 E186.13748
G1 X19.731 Y8.964 E186.45367
G1 X0.060 Y8.964 E188.78992
G1 X0.000 Y8.250 F7800.000
G1 X-19.435 Y8.250 E191.09817 F1800.000
G1 X-20.900 Y6.785 E191.34409
G1 X-20.900 Y-15.785 E194.02471
G1 X-19.435 Y-17.250 E194.27063
G1 X-9.465 Y-17.250 E195.45481
G1 X-8.000 Y-15.785 E195.70073
G1 X-8.000 Y-3.668 E197.13986 F1800.000
G1 X-7.582 Y-3.250 E197.21013
G1 X7.582 Y-3.250 E199.01111
G1 X8.000 Y-3.668 E199.08137
G1 X8.000 Y-15.785 E200.52050
G1 X9.465 Y-17.250 E200.76643
G1 X19.435 Y-17.250 E201.95060
G1 X20.900 Y-15.785 E202.19653
G1 X20.900 Y6.785 E204.87714
G1 X19.435 Y8.250 E205.12307
G1 X0.060 Y8.250 E207.42419
G1 X0.000 Y7.535 F7800.000
G1 X-19.140 Y7.535 E209.69730 F1800.000
G1 X-20.185 Y6.490 E209.87296
G1 X-20.185 Y-15.490 E212.48331
G1 X-19.140 Y-16.535 E212.65897
G1 X-9.760 Y-16.535 E213.77288
G1 X-8.715 Y-15.490 E213.94854 F1800.000
G1 X-8.715 Y-2.954 E215.43735
G1 X-8.296 Y-2.535 E215.50762
G1 X8.296 Y-2.535 E217.47823
G1 X8.715 Y-2.954 E217.54850
G1 X8.715 Y-15.490 E219.03731
G1 X9.760 Y-16.535 E219.21297
G1 X19.140 Y-16.535 E220.32688
G1 X20.185 Y-15.490 E220.50254
G1 X20.185 Y6.490 E223.11289
G1 X19.140 Y7.535 E223.28855
G1 X0.060 Y7.535 E225.55454
G1 X0.000 Y6.821 F7800.000
G1 X-18.844 Y6.821 E227.79252 F1800.000
G1 X-19.471 Y6.194 E227.89791
G1 X-19.471 Y-15.194 E230.43800
G1 X-18.844 Y-15.821 E230.54339
G1 X-10.056 Y-15.821 E231.58704
G1 X-9.429 Y-15.194 E231.69243
G1 X-9.429 Y-2.240 E233.23093 F1800.000
G1 X-9.010 Y-1.821 E233.30120
G1 X9.010 Y-1.821 E235.44145
G1 X9.429 Y-2.240 E235.51171
G1 X9.429 Y-15.194 E237.05021
G1 X10.056 Y-15.821 E237.15561
G1 X18.844 Y-15.821 E238.19925
G1 X19.471 Y-15.194 E238.30465
G1 X19.471 Y6.194 E240.84473
G1 X18.844 Y6.821 E240.95013
G1 X0.060 Y6.821 E243.18098
G1 X0.000 Y6.107 F7800.000
G1 X-18.548 Y6.107 E245.38383 F1800.000
G1 X-18.757 Y5.898 E245.41896
G1 X-18.757 Y-14.898 E247.88878
G1 X-18.548 Y-15.107 E247.92391
G1 X-10.352 Y-15.107 E248.89729
G1 X-10.143 Y-14.898 E248.93242 F1800.000
G1 X-10.143 Y-1.525 E250.52061
G1 X-9.725 Y-1.107 E250.59087
G1 X9.725 Y-1.107 E252.90075
G1 X10.143 Y-1.525 E252.97102
G1 X10.143 Y-14.898 E254.55920
G1 X10.352 Y-15.107 E254.59433
G1 X18.548 Y-15.107 E255.56771
G1 X18.757 Y-14.898 E255.60284
G1 X18.757 Y5.898 E258.07266
G1 X18.548 Y6.107 E258.10780
G1 X0.060 Y6.107 E260.30351
G1 E258.30351 F2400.00000
G92 E0
G1 X-10.900 Y-0.350 F7800.000
G1 E2.00000 F2400.00000
G1 X10.900 Y-0.350 E4.58908 F1800.000
G1 X10.900 Y-14.350 E6.25179
G1 X18.000 Y-14.350 E7.09503
G1 X18.000 Y5.350 E9.43471
G1 X-18.000 Y5.350 E13.71026
G1 X-18.000 Y-14.350 E16.04994
G1 X-10.900 Y-14.350 E16.89317
G1 X-10.900 Y-0.410 E18.54876
G1 X-10.900 Y0.050 F7800.000
G1 X-11.614 Y0.364 F7800.000
G1 X11.614 Y0.364 E21.30747 F1800.000
G1 X11.614 Y-13.636 E22.97018
G1 X17.286 Y-13.636 E23.64379
G1 X17.286 Y4.636 E25.81383
G1 X-17.286 Y4.636 E29.91975
G1 X-17.286 Y-13.636 E32.08979
G1 X-11.614 Y-13.636 E32.76339
G1 X-11.614 Y0.304 E34.41898
G1 X-12.328 Y1.078 F7800.000
G1 X12.328 Y1.078 E37.34733 F1800.000
G1 X12.328 Y-12.922 E39.01004
G1 X16.572 Y-12.922 E39.51401
G1 X16.572 Y3.922 E41.51442
G1 X-16.572 Y3.922 E45.45070
G1 X-16.572 Y-12.922 E47.45111
G1 X-12.328 Y-12.922 E47.95508
G1 X-12.328 Y1.018 E49.61066
G1 X-12.764 Y0.444 F7800.000
G1 X-16.136 Y-2.928 E50.17816 F1800.000
G1 X-16.136 Y-3.940 E50.29856
G1 X-12.764 Y-0.568 E50.86606
G1 X-12.764 Y-1.580 E50.98646
G1 X-16.136 Y-4.952 E51.55396
G1 X-16.136 Y-5.964 E51.67436
G1 X-12.764 Y-2.591 E52.24186
G1 X-12.764 Y-3.603 E52.36226
G1 X-16.136 Y-6.976 E52.92976
G1 X-16.136 Y-7.988 E53.05016
G1 X-12.764 Y-4.615 E53.61766
G1 X-12.764 Y-5.627 E53.73806
G1 X-16.136 Y-8.999 E54.30555
G1 X-16.136 Y-10.011 E54.42596
G1 X-12.764 Y-6.639 E54.99345
G1 X-12.764 Y-7.651 E55.11386
G1 X-16.136 Y-11.023 E55.68135
G1 X-16.136 Y-12.035 E55.80176
G1 X-12.764 Y-8.663 E56.36925
G1 X-12.764 Y-9.675 E56.48966
G1 X-15.575 Y-12.486 E56.96278
G1 X-14.563 Y-12.486 E57.08318
G1 X-12.764 Y-10.687 E57.38602
G1 X-12.764 Y-11.698 E57.50643
G1 X-13.552 Y-12.486 E57.63899
G1 X-15.793 Y3.486 F7800.000
G1 X-16.136 Y3.143 E57.69671 F1800.000
G1 X-16.136 Y2.131 E57.81711
G1 X-14.781 Y3.486 E58.04510
G1 X-13.769 Y3.486 E58.16551
G1 X-16.136 Y1.119 E58.56378
G1 X-16.136 Y0.108 E58.68419
G1 X-12.758 Y3.486 E59.25274
G1 X-11.746 Y3.486 E59.37314
G1 X-16.136 Y-0.904 E60.11197
G1 X-16.136 Y-1.916 E60.23238
G1 X-10.734 Y3.486 E61.14148
G1 X-9.722 Y3.486 E61.26189
G1 X-11.694 Y1.514 E61.59379
G1 X-10.682 Y1.514 E61.71420
G1 X-8.710 Y3.486 E62.04610
G1 X-7.698 Y3.486 E62.16651
G1 X-9.670 Y1.514 E62.49841
G1 X-8.659 Y1.514 E62.61882
G1 X-6.686 Y3.486 E62.95072
G1 X-5.674 Y3.486 E63.07113
G1 X-7.647 Y1.514 E63.40304
G1 X-6.635 Y1.514 E63.52344
G1 X-4.662 Y3.486 E63.85535
G1 X-3.651 Y3.486 E63.97575
G1 X-5.623 Y1.514 E64.30766
G1 X-4.611 Y1.514 E64.42806
G1 X-2.639 Y3.486 E64.75997
G1 X-1.627 Y3.486 E64.88037
G1 X-3.599 Y1.514 E65.21228
G1 X-2.587 Y1.514 E65.33268
G1 X-0.615 Y3.486 E65.66459
G1 X0.397 Y3.486 E65.78499
G1 X-1.575 Y1.514 E66.11690
G1 X-0.563 Y1.514 E66.23730
G1 X1.409 Y3.486 E66.56921
G1 X2.421 Y3.486 E66.68961
G1 X0.448 Y1.514 E67.02152
G1 X1.460 Y1.514 E67.14192
G1 X3.433 Y3.486 E67.47383
G1 X4.445 Y3.486 E67.59424
G1 X2.472 Y1.514 E67.92614
G1 X3.484 Y1.514 E68.04655
G1 X5.456 Y3.486 E68.37845
G1 X6.468 Y3.486 E68.49886
G1 X4.496 Y1.514 E68.83076
G1 X5.508 Y1.514 E68.95117
G1 X7.480 Y3.486 E69.28307
G1 X8.492 Y3.486 E69.40348
G1 X6.520 Y1.514 E69.73538
G1 X7.532 Y1.514 E69.85579
G1 X9.504 Y3.486 E70.18769
G1 X10.516 Y3.486 E70.30810
G1 X8.544 Y1.514 E70.64000
G1 X9.555 Y1.514 E70.76041
G1 X11.528 Y3.486 E71.09231
G1 X12.540 Y3.486 E71.21272
G1 X10.567 Y1.514 E71.54463
G1 X11.579 Y1.514 E71.66503
G1 X13.552 Y3.486 E71.99694
G1 X14.563 Y3.486 E72.11734
G1 X12.591 Y1.514 E72.44925
G1 X12.764 Y0.675 E72.55119
G1 X15.575 Y3.486 E73.02431
G1 X16.136 Y3.035 E73.10995
G1 X12.764 Y-0.337 E73.67744
G1 X12.764 Y-1.349 E73.79785
G1 X16.136 Y2.023 E74.36534
G1 X16.136 Y1.011 E74.48575
G1 X12.764 Y-2.361 E75.05324
G1 X12.764 Y-3.373 E75.17365
G1 X16.136 Y-0.001 E75.74114
G1 X16.136 Y-1.012 E75.86154
G1 X12.764 Y-4.385 E76.42904
G1 X12.764 Y-5.397 E76.54944
G1 X16.136 Y-2.024 E77.11694
G1 X16.136 Y-3.036 E77.23734
G1 X12.764 Y-6.409 E77.80484
G1 X12.764 Y-7.420 E77.92524
G1 X16.136 Y-4.048 E78.49274
G1 X16.136 Y-5.060 E78.61314
G1 X12.764 Y-8.432 E79.18064
G1 X12.764 Y-9.444 E79.30104
G1 X16.136 Y-6.072 E79.86854
G1 X16.136 Y-7.084 E79.98894
G1 X12.764 Y-10.456 E80.55644
G1 X12.764 Y-11.468 E80.67684
G1 X16.136 Y-8.096 E81.24434
G1 X16.136 Y-9.108 E81.36474
G1 X12.764 Y-12.480 E81.93223
G1 X13.769 Y-12.486 E82.05189
G1 X16.136 Y-10.119 E82.45017
G1 X16.136 Y-11.131 E82.57057
G1 X14.781 Y-12.486 E82.79857
G1 X15.793 Y-12.486 E82.91897
G1 X16.136 Y-12.143 E82.97669
M104 S197 ; set temperature
M140 S60 ; wait for bed temperature to be reached
G1 Z1.000 F7800.000
G1 E80.97669 F2400.00000
G92 E0
G1 X-11.358 Y0.108 F7800.000
G1 E2.00000 F2400.00000
G1 X11.358 Y0.108 E3.26238 F3600.000
G1 X11.358 Y-13.892 E4.04037
G1 X17.542 Y-13.892 E4.38399
G1 X17.542 Y4.892 E5.42780
G1 X-17.542 Y4.892 E7.37742
G1 X-17.542 Y-13.892 E8.42123
G1 X-11.358 Y-13.892 E8.76485
G1 X-11.358 Y0.048 E9.53951
G1 X-11.024 Y-0.226 F7800.000
G1 X11.024 Y-0.226 E10.76475 F3600.000
G1 X11.024 Y-14.226 E11.54274
G1 X17.876 Y-14.226 E11.92350
G1 X17.876 Y5.226 E13.00445
G1 X-17.876 Y5.226 E14.99121
G1 X-17.876 Y-14.226 E16.07216
G1 X-11.024 Y-14.226 E16.45291
G1 X-11.024 Y-0.286 E17.22757
G1 X-10.700 Y-0.550 F7800.000
G1 X10.700 Y-0.550 E18.34561 F1800.000
G1 X10.700 Y-14.550 E19.07704
G1 X18.200 Y-14.550 E19.46888
G1 X18.200 Y5.550 E20.51900
G1 X-18.200 Y5.550 E22.42072
G1 X-18.200 Y-14.550 E23.47084
G1 X-10.700 Y-14.550 E23.86268
G1 X-10.700 Y-0.610 E24.59097
G1 X-10.700 Y-0.150 F7800.000
G1 X-17.349 Y-13.517 F7800.000
G1 X-17.167 Y-13.699 E24.60533 F1200.000
G1 X-16.692 Y-13.699 E24.63187
G1 X-17.349 Y-13.042 E24.68376
G1 X-17.349 Y-12.567 E24.71029
G1 X-16.217 Y-13.699 E24.79971
G1 X-15.742 Y-13.699 E24.82625
G1 X-17.349 Y-12.092 E24.95319
G1 X-17.349 Y-11.617 E24.97973
G1 X-15.267 Y-13.699 E25.14421
G1 X-14.792 Y-13.699 E25.17074
G1 X-17.349 Y-11.142 E25.37275
G1 X-17.349 Y-10.667 E25.39929
G1 X-14.317 Y-13.699 E25.63882
G1 X-13.841 Y-13.699 E25.66536
G1 X-17.349 Y-10.191 E25.94243
G1 X-17.349 Y-9.716 E25.96896
G1 X-13.366 Y-13.699 E26.28356
G1 X-12.891 Y-13.699 E26.31010
G1 X-17.349 Y-9.241 E26.66222
G1 X-17.349 Y-8.766 E26.68876
G1 X-12.416 Y-13.699 E27.07841
G1 X-11.941 Y-13.699 E27.10495
G1 X-17.349 Y-8.291 E27.53214
G1 X-17.349 Y-7.816 E27.55867
G1 X-11.551 Y-13.613 E28.01666
G1 X-11.551 Y-13.138 E28.04320
G1 X-17.349 Y-7.341 E28.50118
G1 X-17.349 Y-6.866 E28.52772
G1 X-11.551 Y-12.663 E28.98570
G1 X-11.551 Y-12.188 E29.01224
G1 X-17.349 Y-6.391 E29.47022
G1 X-17.349 Y-5.916 E29.49676
G1 X-11.551 Y-11.713 E29.95474
G1 X-11.551 Y-11.238 E29.98128
G1 X-17.349 Y-5.441 E30.43926
G1 X-17.349 Y-4.966 E30.46580
G1 X-11.551 Y-10.763 E30.92379
G1 X-11.551 Y-10.288 E30.95032
G1 X-17.349 Y-4.491 E31.40831
G1 X-17.349 Y-4.016 E31.43485
G1 X-11.551 Y-9.813 E31.89283
G1 X-11.551 Y-9.338 E31.91937
G1 X-17.349 Y-3.541 E32.37735
G1 X-17.349 Y-3.066 E32.40389
G1 X-11.551 Y-8.863 E32.86187
G1 X-11.551 Y-8.388 E32.88841
G1 X-17.349 Y-2.591 E33.34639
G1 X-17.349 Y-2.116 E33.37293
G1 X-11.551 Y-7.913 E33.83091
G1 X-11.551 Y-7.438 E33.85745
G1 X-17.349 Y-1.641 E34.31544
G1 X-17.349 Y-1.165 E34.34197
G1 X-11.551 Y-6.963 E34.79996
G1 X-11.551 Y-6.488 E34.82649
G1 X-17.349 Y-0.690 E35.28448
G1 X-17.349 Y-0.215 E35.31102
G1 X-11.551 Y-6.013 E35.76900
G1 X-11.551 Y-5.537 E35.79554
G1 X-17.349 Y0.260 E36.25352
G1 X-17.349 Y0.735 E36.28006
G1 X-11.551 Y-5.062 E36.73804
G1 X-11.551 Y-4.587 E36.76458
G1 X-17.349 Y1.210 E37.22256
G1 X-17.349 Y1.685 E37.24910
G1 X-11.551 Y-4.112 E37.70709
G1 X-11.551 Y-3.637 E37.73362
G1 X-17.349 Y2.160 E38.19161
G1 X-17.349 Y2.635 E38.21815
G1 X-11.551 Y-3.162 E38.67613
G1 X-11.551 Y-2.687 E38.70267
G1 X-17.349 Y3.110 E39.16065
G1 X-17.349 Y3.585 E39.18719
G1 X-11.551 Y-2.212 E39.64517
G1 X-11.551 Y-1.737 E39.67171
G1 X-17.349 Y4.060 E40.12969
G1 X-17.349 Y4.535 E40.15623
G1 X-11.551 Y-1.262 E40.61422
G1 X-11.551 Y-0.787 E40.64075
G1 X-17.037 Y4.699 E41.07412
G1 X-16.562 Y4.699 E41.10066
