; generated by Slic3r 1.2.9 on 2017-11-10 at 19:11:16

; external perimeters extrusion width = 0.40mm
; perimeters extrusion width = 0.48mm
; infill extrusion width = 0.48mm
; solid infill extrusion width = 0.48mm
; top infill extrusion width = 0.48mm

M107
M190 S65 ; set bed temperature
M104 S202 ; set temperature
G28 ; home all axes

M109 S202 ; wait for temperature to be reached
G21 ; set units to millimeters
G90 ; use absolute coordinates
M82 ; use absolute distances for extrusion
G92 E0
G1 Z0.700 F4800.000
G1 E-2.00000 F2400.00000
G92 E0
G1 X17.714 Y0.000 F4800.000
G1 E2.00000 F2400.00000
G1 X17.714 Y22.500 E4.67222 F1800.000
G1 X17.316 Y25.394 E5.01911
G1 X16.151 Y28.072 E5.36601
G1 X14.306 Y30.337 E5.71290
G1 X11.918 Y32.019 E6.05979
G1 X9.165 Y32.993 E6.40669
G1 X7.000 Y33.214 E6.66514
G1 X-7.000 Y33.214 E8.32786
G1 X-9.894 Y32.816 E8.67475
G1 X-12.572 Y31.651 E9.02164
G1 X-14.837 Y29.806 E9.36854
G1 X-16.519 Y27.418 E9.71543
G1 X-17.493 Y24.665 E10.06233
G1 X-17.714 Y22.500 E10.32078
G1 X-17.714 Y-22.500 E15.66522
G1 X-17.316 Y-25.394 E16.01211
G1 X-16.151 Y-28.072 E16.35900
G1 X-14.306 Y-30.337 E16.70590
G1 X-11.918 Y-32.019 E17.05279
G1 X-9.165 Y-32.993 E17.39969
G1 X-7.000 Y-33.214 E17.65814
G1 X7.000 Y-33.214 E19.32085
G1 X9.894 Y-32.816 E19.66775
G1 X12.572 Y-31.651 E20.01464 F1800.000
G1 X14.837 Y-29.806 E20.36154
G1 X16.519 Y-27.418 E20.70843
G1 X17.493 Y-24.665 E21.05533
G1 X17.714 Y-22.500 E21.31378
G1 X17.714 Y-0.060 E23.97887
G1 E21.97887 F2400.00000
G92 E0
G1 X15.213 Y0.000 F4800.000
G1 E2.00000 F2400.00000
G1 X15.213 Y25.902 E5.07624 F1800.000
G1 X10.402 Y30.713 E5.88429
G1 X-10.402 Y30.713 E8.35504
G1 X-15.213 Y25.902 E9.16309
G1 X-15.213 Y-25.902 E15.31557
G1 X-10.402 Y-30.713 E16.12362
G1 X-0.948 Y-30.713 E17.24639
G1 X-0.296 Y-30.061 E17.35595
G1 X0.296 Y-30.061 E17.42622 F1800.000
G1 X0.948 Y-30.713 E17.53578
G1 X10.402 Y-30.713 E18.65856
G1 X15.213 Y-25.902 E19.46660
G1 X15.213 Y-0.060 E22.53572
G1 X14.499 Y0.000 F4800.000
G1 X14.499 Y25.606 E25.57682 F1800.000
G1 X10.106 Y29.999 E26.31460
G1 X-10.106 Y29.999 E28.71510
G1 X-14.499 Y25.606 E29.45288
G1 X-14.499 Y-25.606 E35.53509
G1 X-10.106 Y-29.999 E36.27287
G1 X-1.244 Y-29.999 E37.32538
G1 X-0.296 Y-29.051 E37.48463 F1800.000
G1 X0.296 Y-29.051 E37.55490
G1 X1.244 Y-29.999 E37.71414
G1 X10.106 Y-29.999 E38.76665
G1 X14.499 Y-25.606 E39.50443
G1 X14.499 Y-0.060 E42.53842
G1 X13.785 Y0.000 F4800.000
G1 X13.785 Y25.310 E45.54439 F1800.000
G1 X9.810 Y29.285 E46.21191
G1 X-9.810 Y29.285 E48.54214
G1 X-13.785 Y25.310 E49.20965
G1 X-13.785 Y-25.310 E55.22160
G1 X-9.810 Y-29.285 E55.88912
G1 X-1.540 Y-29.285 E56.87136
G1 X-0.296 Y-28.041 E57.08029
G1 X0.296 Y-28.041 E57.15056 F1800.000
G1 X1.540 Y-29.285 E57.35949
G1 X9.810 Y-29.285 E58.34174
G1 X13.785 Y-25.310 E59.00925
G1 X13.785 Y-0.060 E62.00810
G1 X13.070 Y0.000 F4800.000
G1 X13.070 Y25.014 E64.97894 F1800.000
G1 X9.514 Y28.570 E65.57620
G1 X-9.514 Y28.570 E67.83616
G1 X-13.070 Y25.014 E68.43341
G1 X-13.070 Y-25.014 E74.37510
G1 X-9.514 Y-28.570 E74.97235
G1 X-1.836 Y-28.570 E75.88433
G1 X-0.296 Y-27.031 E76.14294 F1800.000
G1 X0.296 Y-27.031 E76.21321
G1 X1.836 Y-28.570 E76.47183
G1 X9.514 Y-28.570 E77.38381
G1 X13.070 Y-25.014 E77.98106
G1 X13.070 Y-0.060 E80.94477
G1 X12.356 Y0.000 F4800.000
G1 X12.356 Y24.719 E83.88048 F1800.000
G1 X9.219 Y27.856 E84.40747
G1 X-9.219 Y27.856 E86.59717
G1 X-12.356 Y24.719 E87.12416
G1 X-12.356 Y-24.719 E92.99557
G1 X-9.219 Y-27.856 E93.52256
G1 X-2.131 Y-27.856 E94.36428
G1 X-0.296 Y-26.021 E94.67258
G1 X0.296 Y-26.021 E94.74284 F1800.000
G1 X2.131 Y-27.856 E95.05115
G1 X9.219 Y-27.856 E95.89286
G1 X12.356 Y-24.719 E96.41985
G1 X12.356 Y-0.060 E99.34843
G1 X11.642 Y0.000 F4800.000
G1 X11.642 Y24.423 E102.24901 F1800.000
G1 X8.923 Y27.142 E102.70573
G1 X-8.923 Y27.142 E104.82516
G1 X-11.642 Y24.423 E105.28188
G1 X-11.642 Y-24.423 E111.08304
G1 X-8.923 Y-27.142 E111.53976
G1 X-2.427 Y-27.142 E112.31121
G1 X-0.296 Y-25.011 E112.66920 F1800.000
G1 X0.296 Y-25.011 E112.73946
G1 X2.427 Y-27.142 E113.09745
G1 X8.923 Y-27.142 E113.86890
G1 X11.642 Y-24.423 E114.32562
G1 X11.642 Y-0.060 E117.21907
G1 X10.928 Y0.000 F4800.000
G1 X10.928 Y24.127 E120.08452 F1800.000
G1 X8.627 Y26.428 E120.47097
G1 X-8.627 Y26.428 E122.52014
G1 X-10.928 Y24.127 E122.90660
G1 X-10.928 Y-24.127 E128.63749
G1 X-8.627 Y-26.428 E129.02395
G1 X-2.723 Y-26.428 E129.72513
G1 X-0.296 Y-24.001 E130.13280
G1 X0.296 Y-24.001 E130.20307 F1800.000
G1 X2.723 Y-26.428 E130.61074
G1 X8.627 Y-26.428 E131.31192
G1 X10.928 Y-24.127 E131.69838
G1 X10.928 Y-0.060 E134.55670
G1 X10.214 Y0.000 F4800.000
G1 X10.214 Y23.831 E137.38701 F1800.000
G1 X8.331 Y25.714 E137.70321
G1 X-8.331 Y25.714 E139.68211
G1 X-10.214 Y23.831 E139.99830
G1 X-10.214 Y-23.831 E145.65893
G1 X-8.331 Y-25.714 E145.97512
G1 X-3.019 Y-25.714 E146.60604
G1 X-1.136 Y-23.831 E146.92223 F1800.000
G1 X-1.136 Y-18.925 E147.50496
G1 X-1.335 Y-18.057 E147.61067
G1 X-1.335 Y-17.643 E147.65982
G1 X-1.303 Y-17.496 E147.67765
G1 X-1.135 Y-17.118 E147.72681
G1 X-1.047 Y-16.997 E147.74464
G1 X-0.739 Y-16.720 E147.79380
G1 X-0.609 Y-16.645 E147.81163
G1 X-0.216 Y-16.517 E147.86078
G1 X-0.066 Y-16.501 E147.87861
G1 X0.345 Y-16.544 E147.92777
G1 X0.488 Y-16.591 E147.94560
G1 X0.847 Y-16.798 E147.99476
G1 X0.958 Y-16.898 E148.01259
G1 X1.201 Y-17.233 E148.06175
G1 X1.262 Y-17.370 E148.07958
G1 X1.349 Y-17.775 E148.12874
G1 X1.349 Y-17.925 E148.14656
G1 X1.171 Y-18.758 E148.24770
G1 X1.136 Y-19.093 E148.28770
G1 X1.136 Y-23.831 E148.85043
G1 X3.019 Y-25.714 E149.16663
G1 X8.331 Y-25.714 E149.79755
G1 X10.214 Y-23.831 E150.11374
G1 X10.214 Y-0.060 E152.93692
G1 X9.500 Y0.000 F4800.000
G1 X9.500 Y23.535 E155.73210 F1800.000
G1 X8.035 Y25.000 E155.97803
G1 X-8.035 Y25.000 E157.88667
G1 X-9.500 Y23.535 E158.13260
G1 X-9.500 Y-23.535 E163.72296
G1 X-8.035 Y-25.000 E163.96888
G1 X-3.315 Y-25.000 E164.52954
G1 X-1.850 Y-23.535 E164.77547
G1 X-1.850 Y-19.000 E165.31415 F1800.000
G1 X-1.960 Y-18.486 E165.37655
G1 X-2.018 Y-18.356 E165.39347
G1 X-2.049 Y-18.209 E165.41130
G1 X-2.049 Y-17.491 E165.49651
G1 X-2.018 Y-17.344 E165.51434
G1 X-1.726 Y-16.689 E165.59956
G1 X-1.638 Y-16.567 E165.61739
G1 X-1.104 Y-16.087 E165.70260
G1 X-0.974 Y-16.012 E165.72043
G1 X-0.292 Y-15.791 E165.80564
G1 X-0.143 Y-15.775 E165.82347
G1 X0.571 Y-15.850 E165.90869
G1 X0.714 Y-15.896 E165.92652
G1 X1.335 Y-16.255 E166.01174
G1 X1.447 Y-16.355 E166.02957
G1 X1.868 Y-16.936 E166.11478
G1 X1.929 Y-17.073 E166.13261
G1 X2.079 Y-17.775 E166.21782
G1 X2.079 Y-17.925 E166.23565
G1 X1.878 Y-18.870 E166.35037
G1 X1.850 Y-19.130 E166.38148
G1 X1.850 Y-23.535 E166.90464
G1 X3.315 Y-25.000 E167.15056
G1 X8.035 Y-25.000 E167.71122
G1 X9.500 Y-23.535 E167.95715
G1 X9.500 Y-0.060 E170.74520
G1 X8.785 Y0.000 F4800.000
G1 X8.785 Y23.240 E173.50525 F1800.000
G1 X7.740 Y24.285 E173.68091
G1 X-7.740 Y24.285 E175.51928
G1 X-8.785 Y23.240 E175.69495
G1 X-8.785 Y-23.240 E181.21504
G1 X-7.740 Y-24.285 E181.39070
G1 X-3.610 Y-24.285 E181.88109
G1 X-2.565 Y-23.240 E182.05676 F1800.000
G1 X-2.565 Y-19.075 E182.55139
G1 X-2.643 Y-18.708 E182.59597
G1 X-2.732 Y-18.507 E182.62199
G1 X-2.763 Y-18.361 E182.63982
G1 X-2.763 Y-17.339 E182.76110
G1 X-2.732 Y-17.193 E182.77892
G1 X-2.316 Y-16.260 E182.90020
G1 X-2.228 Y-16.138 E182.91803
G1 X-1.469 Y-15.455 E183.03930
G1 X-1.339 Y-15.380 E183.05713
G1 X-0.368 Y-15.064 E183.17840
G1 X-0.219 Y-15.049 E183.19623
G1 X0.797 Y-15.156 E183.31750
G1 X0.939 Y-15.202 E183.33533
G1 X1.824 Y-15.712 E183.45661
G1 X1.935 Y-15.813 E183.47444
G1 X2.535 Y-16.639 E183.59570
G1 X2.596 Y-16.776 E183.61353
G1 X2.809 Y-17.775 E183.73481
G1 X2.809 Y-17.925 E183.75263
G1 X2.584 Y-18.982 E183.88093
G1 X2.565 Y-19.168 E183.90316
G1 X2.565 Y-23.240 E184.38674
G1 X3.610 Y-24.285 E184.56240
G1 X7.740 Y-24.285 E185.05279
G1 X8.785 Y-23.240 E185.22845
G1 X8.785 Y-0.060 E187.98137
G1 X8.071 Y0.000 F4800.000
G1 X8.071 Y22.944 E190.70629 F1800.000
G1 X7.444 Y23.571 E190.81168
G1 X-7.444 Y23.571 E192.57979
G1 X-8.071 Y22.944 E192.68519
G1 X-8.071 Y-22.944 E198.13502
G1 X-7.444 Y-23.571 E198.24042
G1 X-3.906 Y-23.571 E198.66054
G1 X-3.279 Y-22.944 E198.76594
G1 X-3.279 Y-19.150 E199.21653 F1800.000
G1 X-3.326 Y-18.930 E199.24327
G1 X-3.446 Y-18.659 E199.27842
G1 X-3.477 Y-18.512 E199.29625
G1 X-3.477 Y-17.188 E199.45357
G1 X-3.446 Y-17.041 E199.47140
G1 X-2.907 Y-15.831 E199.62873
G1 X-2.819 Y-15.709 E199.64656
G1 X-1.834 Y-14.823 E199.80389
G1 X-1.704 Y-14.748 E199.82172
G1 X-0.445 Y-14.338 E199.97905
G1 X-0.295 Y-14.323 E199.99688
G1 X1.022 Y-14.461 E200.15421
G1 X1.165 Y-14.508 E200.17204
G1 X2.312 Y-15.170 E200.32937
G1 X2.424 Y-15.270 E200.34720
G1 X3.202 Y-16.342 E200.50452
G1 X3.263 Y-16.479 E200.52235
G1 X3.539 Y-17.775 E200.67968
G1 X3.539 Y-17.925 E200.69751
G1 X3.279 Y-19.205 E200.85266
G1 X3.279 Y-22.944 E201.29666
G1 X3.906 Y-23.571 E201.40206
G1 X7.444 Y-23.571 E201.82218
G1 X8.071 Y-22.944 E201.92758
G1 X8.071 Y-0.060 E204.64537
G1 E202.64537 F2400.00000
G92 E0
G1 X8.000 Y-22.914 F4800.000
G1 X8.000 Y-22.914 F4800.000
G1 X7.357 Y-22.648 F4800.000
G1 E2.00000 F2400.00000
G1 X7.357 Y22.648 E7.37957 F1800.000
G1 X7.148 Y22.857 E7.41470
G1 X-7.148 Y22.857 E9.11254
G1 X-7.357 Y22.648 E9.14767
G1 X-7.357 Y-22.648 E14.52724
G1 X-7.148 Y-22.857 E14.56237
G1 X-4.202 Y-22.857 E14.91223
G1 X-3.993 Y-22.648 E14.94737
G1 X-3.993 Y-19.225 E15.35391
G1 X-4.009 Y-19.151 E15.36282
G1 X-4.160 Y-18.811 E15.40708
G1 X-4.191 Y-18.664 E15.42491
G1 X-4.191 Y-17.036 E15.61829
G1 X-4.160 Y-16.889 E15.63612
G1 X-3.498 Y-15.401 E15.82951
G1 X-3.410 Y-15.280 E15.84734
G1 X-2.199 Y-14.190 E16.04072
G1 X-2.069 Y-14.115 E16.05855
G1 X-0.521 Y-13.612 E16.25194
G1 X-0.372 Y-13.597 E16.26977
G1 X1.248 Y-13.767 E16.46315
G1 X1.391 Y-13.813 E16.48098
G1 X2.801 Y-14.627 E16.67437
G1 X2.912 Y-14.728 E16.69220
G1 X3.869 Y-16.045 E16.88559
G1 X3.930 Y-16.182 E16.90342
G1 X4.269 Y-17.775 E17.09680
G1 X4.269 Y-17.925 E17.11463
G1 X3.993 Y-19.243 E17.27451
G1 X3.993 Y-22.648 E17.67894
G1 X4.202 Y-22.857 E17.71407
G1 X7.148 Y-22.857 E18.06393
G1 X7.315 Y-22.690 E18.09194
G1 E16.09194 F2400.00000
G92 E0
G1 X4.750 Y-22.100 F4800.000
G1 E2.00000 F2400.00000
G1 X6.600 Y-22.100 E2.21972 F1800.000
G1 X6.600 Y22.100 E7.46914
G1 X-6.600 Y22.100 E9.03684
G1 X-6.600 Y-22.100 E14.28626
G1 X-4.750 Y-22.100 E14.50597
G1 X-4.750 Y-19.347 E14.83289
G1 X-4.948 Y-18.902 E14.89082
G1 X-4.948 Y-16.798 E15.14065
G1 X-4.093 Y-14.876 E15.39049
G1 X-2.529 Y-13.469 E15.64033
G1 X-0.529 Y-12.819 E15.89016
G1 X1.563 Y-13.039 E16.14000
G1 X3.385 Y-14.090 E16.38984
G1 X4.622 Y-15.792 E16.63968
G1 X5.059 Y-17.850 E16.88952
G1 X4.750 Y-19.303 E17.06599
G1 X4.750 Y-22.040 E17.39100
G1 X5.096 Y-21.900 F4800.000
G1 X5.502 Y-16.500 F4800.000
G1 X5.886 Y-16.460 E17.43682 F1800.000
G1 X5.886 Y21.386 E21.93157
G1 X-5.886 Y21.386 E23.32963
G1 X-5.886 Y-16.313 E27.80700
G1 X-5.546 Y-16.386 E27.84821
G1 X-4.683 Y-14.447 E28.10019
G1 X-2.895 Y-12.837 E28.38609
G1 X-0.605 Y-12.093 E28.67198
G1 X1.789 Y-12.344 E28.95788
G1 X3.874 Y-13.548 E29.24378
G1 X5.289 Y-15.495 E29.52967
G1 X5.490 Y-16.441 E29.64454
G1 X4.876 Y-13.712 F4800.000
G1 X5.172 Y-13.616 E29.68151 F1800.000
G1 X5.172 Y20.672 E33.75366
G1 X-5.172 Y20.672 E34.98210
G1 X-5.172 Y-13.926 E39.09108
G1 X-3.260 Y-12.204 E39.39667
G1 X-0.681 Y-11.367 E39.71862
G1 X2.015 Y-11.650 E40.04057
G1 X4.362 Y-13.005 E40.36252
G1 X4.840 Y-13.663 E40.45913
G1 X2.112 Y16.500 F4800.000
G1 X1.056 Y18.329 E40.70995 F1800.000
G1 X-1.056 Y18.329 E40.96076
G1 X-2.112 Y16.500 E41.21158
G1 X-1.056 Y14.671 E41.46239
G1 X1.056 Y14.671 E41.71321
G1 X2.082 Y16.448 E41.95689
G1 X2.418 Y16.757 F4800.000
G1 X2.937 Y16.500 F4800.000
G1 X1.468 Y19.043 E42.30565 F1800.000
G1 X-1.468 Y19.043 E42.65440
G1 X-2.937 Y16.500 E43.00315
G1 X-1.468 Y13.957 E43.35191
G1 X1.468 Y13.957 E43.70066
G1 X2.907 Y16.448 E44.04229
G1 X3.761 Y16.500 F4800.000
G1 X1.881 Y19.757 E44.48898 F1800.000
G1 X-1.881 Y19.757 E44.93567
G1 X-3.761 Y16.500 E45.38236
G1 X-1.881 Y13.243 E45.82906
G1 X1.881 Y13.243 E46.27575
G1 X3.731 Y16.448 E46.71531
G1 X2.029 Y20.214 F4800.000
G1 X-2.029 Y20.214 E47.19724 F1800.000
G1 X-2.464 Y20.135 F4800.000
G1 X-4.736 Y17.863 E47.58070 F1800.000
G1 X-4.736 Y16.848 E47.70185
G1 X-3.406 Y18.178 E47.92639
G1 X-4.736 Y18.878 F4800.000
G1 X-3.378 Y20.236 E48.15561 F1800.000
G1 X-4.393 Y20.236 E48.27676
G1 X-4.736 Y19.893 E48.33465
G1 X-4.152 Y16.417 F4800.000
G1 X-4.736 Y15.833 E48.43323 F1800.000
G1 X-3.781 Y15.774 E48.54749
G1 X-4.736 Y14.818 E48.70877
G1 X-4.736 Y13.803 E48.82992
G1 X-3.409 Y15.130 E49.05392
G1 X-3.038 Y14.487 E49.14261
G1 X-4.736 Y12.788 E49.42931
G1 X-4.736 Y11.773 E49.55046
G1 X-2.666 Y13.843 E49.89988
G1 X-2.295 Y13.200 E49.98857
G1 X-4.736 Y10.758 E50.40070
G1 X-4.736 Y9.743 E50.52185
G1 X-1.672 Y12.807 E51.03907
G1 X-0.657 Y12.807 E51.16022
G1 X-4.736 Y8.728 E51.84876
G1 X-4.736 Y7.713 E51.96991
G1 X0.358 Y12.807 E52.82979
G1 X1.373 Y12.807 E52.95094
G1 X-4.736 Y6.698 E53.98214
G1 X3.431 Y14.866 F4800.000
G1 X4.736 Y16.170 E54.20240 F1800.000
G1 X4.736 Y15.155 E54.32354
G1 X-4.736 Y5.683 E55.92244
G1 X-4.736 Y4.668 E56.04359
G1 X4.736 Y14.140 E57.64248
G1 X4.736 Y13.125 E57.76363
G1 X-4.736 Y3.653 E59.36253
G1 X-4.736 Y2.638 E59.48367
G1 X4.736 Y12.110 E61.08257
G1 X4.736 Y11.095 E61.20372
G1 X-4.736 Y1.623 E62.80261
G1 X-4.736 Y0.608 E62.92376
G1 X4.736 Y10.080 E64.52266
G1 X4.736 Y9.065 E64.64380
G1 X-4.736 Y-0.407 E66.24270
G1 X-4.736 Y-1.422 E66.36385
G1 X4.736 Y8.050 E67.96274
G1 X4.736 Y7.035 E68.08389
G1 X-4.736 Y-2.437 E69.68278
G1 X-4.736 Y-3.452 E69.80393
G1 X4.736 Y6.020 E71.40283
G1 X4.736 Y5.005 E71.52398
G1 X-4.736 Y-4.467 E73.12287
G1 X-4.736 Y-5.482 E73.24402
G1 X4.736 Y3.990 E74.84291
G1 X4.736 Y2.975 E74.96406
G1 X-4.736 Y-6.497 E76.56296
G1 X-4.736 Y-7.512 E76.68410
G1 X4.736 Y1.960 E78.28300
G1 X4.736 Y0.945 E78.40415
G1 X-4.736 Y-8.527 E80.00304
G1 X-4.736 Y-9.542 E80.12419
G1 X4.736 Y-0.070 E81.72309
G1 X4.736 Y-1.085 E81.84423
G1 X-4.736 Y-10.557 E83.44313
G1 X-4.736 Y-11.572 F4800.000
G1 X4.736 Y-2.100 E85.04202 F1800.000
G1 X4.736 Y-3.115 E85.16317
G1 X-4.736 Y-12.587 E86.76207
G1 X-2.613 Y-11.479 F4800.000
G1 X4.736 Y-4.130 E88.00266 F1800.000
G1 X4.736 Y-5.145 E88.12380
G1 X-1.110 Y-10.991 E89.11060
G1 X-0.108 Y-11.004 E89.23019
G1 X4.736 Y-6.160 E90.04788
G1 X4.736 Y-7.175 E90.16903
G1 X0.810 Y-11.101 E90.83168
G1 X1.729 Y-11.197 E90.94191
G1 X4.736 Y-8.190 E91.44953
G1 X4.736 Y-9.205 E91.57068
G1 X2.468 Y-11.473 E91.95353
G1 X3.112 Y-11.844 E92.04222
G1 X4.736 Y-10.220 E92.31645
G1 X4.736 Y-11.235 E92.43760
G1 X3.755 Y-12.216 E92.60321
G1 X4.399 Y-12.587 E92.69190
G1 X4.736 Y-12.250 E92.74889
G1 X4.145 Y16.595 F4800.000
G1 X4.736 Y17.185 E92.84861 F1800.000
G1 X3.774 Y17.238 E92.96364
G1 X4.736 Y18.200 E93.12607
G1 X4.736 Y19.215 E93.24722
G1 X3.402 Y17.882 E93.47236
G1 X3.031 Y18.525 E93.56105
G1 X4.719 Y20.213 E93.84601
G1 X3.727 Y20.236 E93.96446
G1 X2.659 Y19.169 E94.14467
G1 X5.731 Y-16.835 F4800.000
G1 X5.829 Y-17.764 E94.37984 F1800.000
G1 X5.829 Y-17.936 E94.42319
G1 X5.675 Y-19.401 E94.79401
G1 X5.675 Y-21.743 E95.38380
G1 E93.38380 F2400.00000
G92 E0
G1 X-5.350 Y-21.500 F4800.000
G1 X-5.350 Y-21.500 F4800.000
G1 X-5.675 Y-21.743 F4800.000
G1 E2.00000 F2400.00000
G1 X-5.675 Y-19.544 E2.55370 F1800.000
G1 X-5.753 Y-19.177 E2.64818
G1 X-5.774 Y-18.978 E2.69864
G1 X-5.774 Y-16.702 E3.27162
M104 S199 ; set temperature
M140 S60 ; wait for bed temperature to be reached
G1 Z1.000 F4800.000
G1 X2.800 Y16.500 F4800.000
G1 X1.400 Y18.925 E3.41791 F900.000
G1 X-1.400 Y18.925 E3.56421
G1 X-2.800 Y16.500 E3.71051
G1 X-1.400 Y14.075 E3.85680
G1 X1.400 Y14.075 E4.00310
G1 X2.770 Y16.448 E4.14626
G1 X2.317 Y16.500 F4800.000
G1 X1.158 Y18.506 E4.26729 F900.000
G1 X-1.158 Y18.506 E4.38831
G1 X-2.317 Y16.500 E4.50934
G1 X-1.158 Y14.494 E4.63037
G1 X1.158 Y14.494 E4.75139
G1 X2.287 Y16.448 E4.86929
G1 X1.881 Y16.500 F4800.000
G1 X0.940 Y18.129 E4.94802 F900.000
G1 X-0.940 Y18.129 E5.02676
G1 X-1.881 Y16.500 E5.10549
G1 X-0.940 Y14.871 E5.18423
G1 X0.940 Y14.871 E5.26297
