; generated by Slic3r 1.2.9 on 2017-11-10 at 23:28:31

; external perimeters extrusion width = 0.40mm
; perimeters extrusion width = 0.48mm
; infill extrusion width = 0.48mm
; solid infill extrusion width = 0.48mm
; top infill extrusion width = 0.48mm

M107
M190 S65 ; set bed temperature
M104 S200 ; set temperature
G28 ; home all axes
G29 ;

M109 S200 ; wait for temperature to be reached
G21 ; set units to millimeters
G90 ; use absolute coordinates
M82 ; use absolute distances for extrusion
G92 E0
G1 Z0.500 F6000.000
G1 E-2.00000 F2400.00000
G92 E0
G1 X30.536 Y0.000 F6000.000
G1 E2.00000 F2400.00000
G1 X30.536 Y22.000 E3.46972 F1800.000
G1 X30.138 Y24.575 E3.64378
G1 X28.982 Y26.910 E3.81784
G1 X27.176 Y28.788 E3.99190
G1 X24.887 Y30.033 E4.16596
G1 X22.000 Y30.536 E4.36172
G1 X-22.000 Y30.536 E7.30116
G1 X-24.575 Y30.138 E7.47522
G1 X-26.910 Y28.982 E7.64928
G1 X-28.788 Y27.176 E7.82334
G1 X-30.033 Y24.887 E7.99740
G1 X-30.536 Y22.000 E8.19316
G1 X-30.536 Y-22.000 E11.13260
G1 X-30.138 Y-24.575 E11.30666
G1 X-28.982 Y-26.910 E11.48072
G1 X-27.176 Y-28.788 E11.65478
G1 X-24.887 Y-30.033 E11.82884
G1 X-22.000 Y-30.536 E12.02460
G1 X22.000 Y-30.536 E14.96404
G1 X24.575 Y-30.138 E15.13810
G1 X26.910 Y-28.982 E15.31216 F1800.000
G1 X28.788 Y-27.176 E15.48622
G1 X30.033 Y-24.887 E15.66028
G1 X30.536 Y-22.000 E15.85604
G1 X30.536 Y-0.060 E17.32175
G1 X28.695 Y0.000 F6000.000
G1 X28.695 Y24.773 E18.97674 F1800.000
G1 X24.773 Y28.695 E19.34728
G1 X-24.773 Y28.695 E22.65725
G1 X-28.695 Y24.773 E23.02779
G1 X-28.695 Y-24.773 E26.33776
G1 X-24.773 Y-28.695 E26.70830
G1 X24.773 Y-28.695 E30.01828
G1 X28.695 Y-24.773 E30.38881
G1 X28.695 Y-0.060 E32.03979 F1800.000
G1 X28.160 Y0.000 F6000.000
G1 X28.160 Y24.551 E33.67996 F1800.000
G1 X24.551 Y28.160 E34.02085
G1 X-24.551 Y28.160 E37.30119
G1 X-28.160 Y24.551 E37.64208
G1 X-28.160 Y-24.551 E40.92241
G1 X-24.551 Y-28.160 E41.26331
G1 X24.551 Y-28.160 E44.54364
G1 X28.160 Y-24.551 E44.88453 F1800.000
G1 X28.160 Y-0.060 E46.52069
G1 X27.624 Y0.000 F6000.000
G1 X27.624 Y24.330 E48.14604 F1800.000
G1 X24.330 Y27.624 E48.45729
G1 X-24.330 Y27.624 E51.70798
G1 X-27.624 Y24.330 E52.01923
G1 X-27.624 Y-24.330 E55.26992
G1 X-24.330 Y-27.624 E55.58117
G1 X24.330 Y-27.624 E58.83186
G1 X27.624 Y-24.330 E59.14311
G1 X27.624 Y-0.060 E60.76445 F1800.000
G1 X27.088 Y0.000 F6000.000
G1 X27.088 Y24.108 E62.37497 F1800.000
G1 X24.108 Y27.088 E62.65658
G1 X-24.108 Y27.088 E65.87762
G1 X-27.088 Y24.108 E66.15923
G1 X-27.088 Y-24.108 E69.38028
G1 X-24.108 Y-27.088 E69.66189
G1 X24.108 Y-27.088 E72.88293
G1 X27.088 Y-24.108 E73.16454 F1800.000
G1 X27.088 Y-0.060 E74.77106
G1 X26.553 Y0.000 F6000.000
G1 X26.553 Y23.886 E76.36676 F1800.000
G1 X23.886 Y26.553 E76.61872
G1 X-23.886 Y26.553 E79.81013
G1 X-26.553 Y23.886 E80.06209
G1 X-26.553 Y-23.886 E83.25350
G1 X-23.886 Y-26.553 E83.50546
G1 X23.886 Y-26.553 E86.69686
G1 X26.553 Y-23.886 E86.94883
G1 X26.553 Y-0.060 E88.54052 F1800.000
G1 X26.017 Y0.000 F6000.000
G1 X26.017 Y23.664 E90.12140 F1800.000
G1 X23.664 Y26.017 E90.34373
G1 X-23.664 Y26.017 E93.50549
G1 X-26.017 Y23.664 E93.72781
G1 X-26.017 Y-23.664 E96.88957
G1 X-23.664 Y-26.017 E97.11189
G1 X23.664 Y-26.017 E100.27365
G1 X26.017 Y-23.664 E100.49597 F1800.000
G1 X26.017 Y-0.060 E102.07285
G1 X25.482 Y0.000 F6000.000
G1 X25.482 Y23.442 E103.63890 F1800.000
G1 X23.442 Y25.482 E103.83158
G1 X-23.442 Y25.482 E106.96370
G1 X-25.482 Y23.442 E107.15638
G1 X-25.482 Y-23.442 E110.28850
G1 X-23.442 Y-25.482 E110.48118
G1 X23.442 Y-25.482 E113.61329
G1 X25.482 Y-23.442 E113.80597
G1 X25.482 Y-0.060 E115.36802 F1800.000
G1 X24.946 Y0.000 F6000.000
G1 X24.946 Y23.220 E116.91926 F1800.000
G1 X23.220 Y24.946 E117.08230
G1 X-23.220 Y24.946 E120.18477
G1 X-24.946 Y23.220 E120.34781
G1 X-24.946 Y-23.220 E123.45028
G1 X-23.220 Y-24.946 E123.61332
G1 X23.220 Y-24.946 E126.71579
G1 X24.946 Y-23.220 E126.87883 F1800.000
G1 X24.946 Y-0.060 E128.42606
G1 X24.410 Y0.000 F6000.000
G1 X24.410 Y22.998 E129.96247 F1800.000
G1 X22.998 Y24.410 E130.09587
G1 X-22.998 Y24.410 E133.16870
G1 X-24.410 Y22.998 E133.30209
G1 X-24.410 Y-22.998 E136.37492
G1 X-22.998 Y-24.410 E136.50832
G1 X22.998 Y-24.410 E139.58115
G1 X24.410 Y-22.998 E139.71454
G1 X24.410 Y-0.060 E141.24695 F1800.000
G1 X23.875 Y0.000 F6000.000
G1 X23.875 Y22.777 E142.76854 F1800.000
G1 X22.777 Y23.875 E142.87229
G1 X-22.777 Y23.875 E145.91548
G1 X-23.875 Y22.777 E146.01923
G1 X-23.875 Y-22.777 E149.06242
G1 X-22.777 Y-23.875 E149.16617
G1 X22.777 Y-23.875 E152.20936
G1 X23.875 Y-22.777 E152.31311 F1800.000
G1 X23.875 Y-0.060 E153.83070
G1 X23.339 Y0.000 F6000.000
G1 X23.339 Y22.555 E155.33747 F1800.000
G1 X22.555 Y23.339 E155.41158
G1 X-22.555 Y23.339 E158.42512
G1 X-23.339 Y22.555 E158.49923
G1 X-23.339 Y-22.555 E161.51278
G1 X-22.555 Y-23.339 E161.58688
G1 X22.555 Y-23.339 E164.60043
G1 X23.339 Y-22.555 E164.67454
G1 X23.339 Y-0.060 E166.17730 F1800.000
G1 X22.803 Y0.000 F6000.000
G1 X22.803 Y22.333 E167.66925 F1800.000
G1 X22.333 Y22.803 E167.71372
G1 X-22.333 Y22.803 E170.69762
G1 X-22.803 Y22.333 E170.74208
G1 X-22.803 Y-22.333 E173.72599
G1 X-22.333 Y-22.803 E173.77045
G1 X22.333 Y-22.803 E176.75435
G1 X22.803 Y-22.333 E176.79882 F1800.000
G1 X22.803 Y-0.060 E178.28676
G1 F4800
G1 X22.803 Y3.940 E176.38676
G1 E176.28676 F2400.00000
G92 E0
G1 X22.268 Y-22.111 F6000.000
G1 E2.00000 F2400.00000
G1 X22.268 Y22.111 E4.95426 F1800.000
G1 X22.111 Y22.268 E4.96908
G1 X-22.111 Y22.268 E7.92334
G1 X-22.268 Y22.111 E7.93816
G1 X-22.268 Y-22.111 E10.89242
G1 X-22.111 Y-22.268 E10.90724
G1 X22.111 Y-22.268 E13.86150
G1 X22.225 Y-22.153 E13.87232
G1 X21.700 Y-21.700 F6000.000
G1 X21.700 Y21.700 E16.77167 F1800.000
G1 X-21.700 Y21.700 E19.67103
G1 X-21.700 Y-21.700 E22.57038
G1 X21.640 Y-21.700 E25.46573
G1 X21.500 Y-21.354 F6000.000
G1 X21.164 Y-21.164 F6000.000
G1 X21.164 Y21.164 E28.29352 F1800.000
G1 X-21.164 Y21.164 E31.12131
G1 X-21.164 Y-21.164 E33.94910
G1 X21.104 Y-21.164 E36.77288
G1 X20.629 Y-20.629 F6000.000
G1 X20.629 Y20.629 E39.52910 F1800.000
G1 X-20.629 Y20.629 E42.28533
G1 X-20.629 Y-20.629 E45.04156
G1 X20.569 Y-20.629 E47.79377
G1 X6.495 Y-19.472 F6000.000
G1 X-10.978 Y-18.490 F6000.000
G1 X-19.765 Y-4.333 F6000.000
G1 X-19.051 Y8.705 F6000.000
G1 X-16.761 Y11.971 F6000.000
G1 X-14.598 Y12.955 F6000.000
G1 X-14.598 Y13.571 F6000.000
G1 X-14.004 Y16.000 F6000.000
G1 X-15.002 Y17.729 E47.92714 F1800.000
G1 X-16.998 Y17.729 E48.06051
G1 X-17.996 Y16.000 E48.19388
G1 X-16.998 Y14.271 E48.32725
G1 X-15.002 Y14.271 E48.46062
G1 X-14.034 Y15.948 E48.58998
G1 X-13.697 Y16.257 F6000.000
G1 X-13.385 Y16.000 F6000.000
G1 X-14.693 Y18.265 E48.76467 F1800.000
G1 X-17.307 Y18.265 E48.93936
G1 X-18.615 Y16.000 E49.11404
G1 X-17.307 Y13.735 E49.28873
G1 X-14.693 Y13.735 E49.46342
G1 X-13.415 Y15.948 E49.63410
G1 X-12.767 Y16.000 F6000.000
G1 X-14.383 Y18.800 E49.85010 F1800.000
G1 X-17.617 Y18.800 E50.06611
G1 X-19.233 Y16.000 E50.28211
G1 X-17.617 Y13.200 E50.49812
G1 X-14.065 Y13.200 E50.73537
G1 X-14.289 Y13.363 E50.75386
G1 X-12.797 Y15.948 E50.95331
G1 X-2.207 Y19.939 F6000.000
G1 X6.495 Y19.472 F6000.000
G1 X11.462 Y18.333 F6000.000
G1 X11.785 Y16.814 F6000.000
G1 X13.195 Y16.000 F6000.000
G1 X14.004 Y16.000 F6000.000
G1 X15.002 Y14.271 E51.08667 F1800.000
G1 X16.998 Y14.271 E51.22004
G1 X17.996 Y16.000 E51.35341
G1 X16.998 Y17.729 E51.48678
G1 X15.002 Y17.729 E51.62015
G1 X14.034 Y16.052 E51.74951
G1 X13.697 Y15.743 F6000.000
G1 X13.385 Y16.000 F6000.000
G1 X14.693 Y13.735 E51.92420 F1800.000
G1 X17.307 Y13.735 E52.09889
G1 X18.615 Y16.000 E52.27357
G1 X17.307 Y18.265 E52.44826
G1 X14.693 Y18.265 E52.62295
G1 X13.415 Y16.052 E52.79363
G1 X12.767 Y16.000 F6000.000
G1 X14.289 Y13.363 E52.99709 F1800.000
G1 X14.066 Y13.200 E53.01557
G1 X17.617 Y13.200 E53.25281
G1 X19.233 Y16.000 E53.46881
G1 X17.617 Y18.800 E53.68482
G1 X14.383 Y18.800 E53.90082
G1 X12.797 Y16.052 E54.11282
G1 X14.148 Y13.311 F6000.000
G1 X18.393 Y11.160 F6000.000
G1 X19.765 Y-4.333 F6000.000
G1 X17.402 Y-11.601 F6000.000
G1 X16.444 Y-12.133 F6000.000
G1 X14.598 Y-12.955 F6000.000
G1 X14.598 Y-13.571 F6000.000
G1 X14.004 Y-16.000 F6000.000
G1 X15.002 Y-17.729 E54.24619 F1800.000
G1 X16.998 Y-17.729 E54.37956
G1 X17.996 Y-16.000 E54.51293
G1 X16.998 Y-14.271 E54.64630
G1 X15.002 Y-14.271 E54.77967
G1 X14.034 Y-15.948 E54.90904
G1 X13.697 Y-16.257 F6000.000
G1 X13.385 Y-16.000 F6000.000
G1 X14.693 Y-18.265 E55.08372 F1800.000
G1 X17.307 Y-18.265 E55.25841
G1 X18.615 Y-16.000 E55.43310
G1 X17.307 Y-13.735 E55.60779
G1 X14.693 Y-13.735 E55.78248
G1 X13.415 Y-15.948 E55.95316
G1 X12.767 Y-16.000 F6000.000
G1 X14.383 Y-18.800 E56.16917 F1800.000
G1 X17.617 Y-18.800 E56.38517
G1 X19.233 Y-16.000 E56.60118
G1 X17.617 Y-13.200 E56.81719
G1 X14.065 Y-13.200 E57.05444
G1 X14.289 Y-13.363 E57.07295
G1 X12.797 Y-15.948 E57.27239
G1 X2.207 Y-19.939 F6000.000
G1 X-6.495 Y-19.472 F6000.000
G1 X-11.462 Y-18.333 F6000.000
G1 X-11.785 Y-16.814 F6000.000
G1 X-13.195 Y-16.000 F6000.000
G1 X-15.002 Y-14.271 F6000.000
G1 X-16.998 Y-14.271 E57.40576 F1800.000
G1 X-17.996 Y-16.000 E57.53913
G1 X-16.998 Y-17.729 E57.67250
G1 X-15.002 Y-17.729 E57.80587
G1 X-14.004 Y-16.000 E57.93924
G1 X-14.972 Y-14.323 E58.06860
G1 X-15.071 Y-13.877 F6000.000
G1 X-14.693 Y-13.735 F6000.000
G1 X-17.307 Y-13.735 E58.24329 F1800.000
G1 X-17.611 Y-14.260 E58.28379
G1 X-18.615 Y-16.000 E58.41798
G1 X-17.307 Y-18.265 E58.59267
G1 X-14.693 Y-18.265 E58.76736
G1 X-13.385 Y-16.000 E58.94205
G1 X-14.663 Y-13.787 E59.11273
G1 X-14.065 Y-13.200 F6000.000
G1 X-17.617 Y-13.200 E59.35000 F1800.000
G1 X-19.233 Y-16.000 E59.56600
G1 X-17.617 Y-18.800 E59.78201
G1 X-14.383 Y-18.800 E59.99802
G1 X-12.767 Y-16.000 E60.21402
G1 X-14.289 Y-13.363 E60.41746
G1 X-14.114 Y-13.235 E60.43197
G1 X-13.260 Y-12.475 F6000.000
G1 X-12.246 Y-13.601 E60.53318 F1800.000
G1 X-9.151 Y-15.850 E60.78878
G1 X-5.656 Y-17.406 E61.04439
G1 X-1.913 Y-18.201 E61.29999
G1 X1.913 Y-18.201 E61.55559 F1800.000
G1 X5.656 Y-17.406 E61.81120
G1 X9.151 Y-15.850 E62.06680
G1 X12.246 Y-13.601 E62.32240
G1 X14.806 Y-10.757 E62.57801
G1 X16.719 Y-7.444 E62.83361
G1 X17.902 Y-3.805 E63.08921
G1 X18.302 Y0.000 E63.34482
G1 X17.902 Y3.805 E63.60042
G1 X16.719 Y7.444 E63.85603
G1 X14.806 Y10.757 E64.11163
G1 X12.246 Y13.601 E64.36723
G1 X9.151 Y15.850 E64.62283
G1 X5.656 Y17.406 E64.87844
G1 X1.913 Y18.201 E65.13404
G1 X-1.913 Y18.201 E65.38964
G1 X-5.656 Y17.406 E65.64525
G1 X-9.151 Y15.850 E65.90085
G1 X-12.246 Y13.601 E66.15645
G1 X-14.806 Y10.757 E66.41206
G1 X-16.719 Y7.444 E66.66766
G1 X-17.902 Y3.805 E66.92326
G1 X-18.302 Y0.000 E67.17887
G1 X-17.902 Y-3.805 E67.43447
G1 X-16.719 Y-7.444 E67.69008
G1 X-14.806 Y-10.757 E67.94567
G1 X-13.300 Y-12.430 E68.09606
G1 X-13.384 Y-12.855 F6000.000
G1 X-13.658 Y-12.833 F6000.000
G1 X-12.607 Y-14.001 E68.20103 F1800.000
G1 X-9.420 Y-16.316 E68.46416
G1 X-5.822 Y-17.918 E68.72728
G1 X-1.969 Y-18.737 E68.99041
G1 X1.969 Y-18.737 E69.25353 F1800.000
G1 X5.822 Y-17.918 E69.51666
G1 X9.420 Y-16.316 E69.77978
G1 X12.607 Y-14.001 E70.04291
G1 X15.242 Y-11.074 E70.30603
G1 X17.211 Y-7.663 E70.56915
G1 X18.429 Y-3.917 E70.83228
G1 X18.840 Y0.000 E71.09541
G1 X18.429 Y3.917 E71.35853
G1 X17.211 Y7.663 E71.62166
G1 X15.242 Y11.074 E71.88478
G1 X12.607 Y14.001 E72.14791
G1 X9.420 Y16.316 E72.41103
G1 X5.822 Y17.918 E72.67416
G1 X1.969 Y18.737 E72.93728
G1 X-1.969 Y18.737 E73.20041
G1 X-5.822 Y17.918 E73.46353
G1 X-9.420 Y16.316 E73.72666
G1 X-12.607 Y14.001 E73.98978
G1 X-15.242 Y11.074 E74.25291
G1 X-17.211 Y7.663 E74.51603
G1 X-18.429 Y3.917 E74.77916
G1 X-18.840 Y0.000 E75.04228
G1 X-18.429 Y-3.917 E75.30541
G1 X-17.211 Y-7.663 E75.56854
G1 X-15.242 Y-11.074 E75.83166
G1 X-13.698 Y-12.789 E75.98581
G1 X-14.056 Y-13.192 F6000.000
G1 X-12.967 Y-14.401 E76.09454 F1800.000
G1 X-9.689 Y-16.783 E76.36518 F1800.000
G1 X-5.988 Y-18.430 E76.63583
G1 X-2.026 Y-19.273 E76.90648
G1 X2.026 Y-19.273 E77.17712
G1 X5.988 Y-18.430 E77.44777
G1 X9.689 Y-16.783 E77.71842
G1 X12.967 Y-14.401 E77.98906
G1 X15.678 Y-11.391 E78.25971
G1 X17.703 Y-7.882 E78.53035
G1 X18.955 Y-4.029 E78.80101
G1 X19.379 Y0.000 E79.07165
G1 X18.955 Y4.029 E79.34230
G1 X17.703 Y7.882 E79.61295
G1 X15.678 Y11.391 E79.88359
G1 X12.967 Y14.401 E80.15424
G1 X9.689 Y16.783 E80.42489
G1 X5.988 Y18.430 E80.69553
G1 X2.026 Y19.273 E80.96618
G1 X-2.026 Y19.273 E81.23683
G1 X-5.988 Y18.430 E81.50747
G1 X-9.689 Y16.783 E81.77812
G1 X-12.967 Y14.401 E82.04877
G1 X-15.678 Y11.391 E82.31942
G1 X-17.703 Y7.882 E82.59006
G1 X-18.955 Y4.029 E82.86071
G1 X-19.379 Y0.000 E83.13135
G1 X-18.955 Y-4.029 E83.40200
G1 X-17.703 Y-7.882 E83.67265
G1 X-15.678 Y-11.391 E83.94329
G1 X-14.096 Y-13.147 E84.10120
G1 X-15.130 Y-12.410 F6000.000
G1 X-15.599 Y-12.878 E84.14579 F1800.000
G1 X-16.361 Y-12.878 E84.19712
G1 X-15.491 Y-12.008 E84.27990
G1 X-15.853 Y-11.607 E84.31624
G1 X-17.124 Y-12.878 E84.43722
G1 X-16.147 Y-11.138 F6000.000
G1 X-20.307 Y-15.298 E84.83305 F1800.000
G1 X-20.307 Y-14.535 F6000.000
G1 X-16.426 Y-10.654 E85.20231 F1800.000
G1 X-16.705 Y-10.171 E85.23988
G1 X-20.307 Y-13.772 E85.58258
G1 X-20.307 Y-13.010 E85.63390
G1 X-16.985 Y-9.687 E85.95003
G1 X-17.264 Y-9.203 E85.98760
G1 X-20.307 Y-12.247 E86.27716
G1 X-20.307 Y-11.484 E86.32848
G1 X-17.543 Y-8.720 E86.59147
G1 X-17.822 Y-8.236 E86.62905
G1 X-20.307 Y-10.721 E86.86547
G1 X-20.307 Y-9.958 E86.91679
G1 X-18.065 Y-7.716 E87.13016
G1 X-18.252 Y-7.140 E87.17089
G1 X-20.307 Y-9.195 E87.36646
G1 X-20.307 Y-8.432 E87.41779
G1 X-18.439 Y-6.564 E87.59556
G1 X-18.626 Y-5.988 E87.63629
G1 X-20.307 Y-7.669 E87.79626
G1 X-20.307 Y-6.907 E87.84758
G1 X-18.813 Y-5.412 E87.98975
G1 X-19.000 Y-4.837 E88.03048
G1 X-20.307 Y-6.144 E88.15485
G1 X-20.307 Y-5.381 E88.20618
G1 X-19.187 Y-4.261 E88.31274
G1 X-19.310 Y-3.621 E88.35657
G1 X-20.307 Y-4.618 E88.45142
G1 X-20.307 Y-3.855 E88.50274
G1 X-19.383 Y-2.931 E88.59069
G1 X-19.455 Y-2.241 E88.63739
G1 X-20.307 Y-3.092 E88.71843
G1 X-20.307 Y-2.329 E88.76976
G1 X-19.528 Y-1.550 E88.84389
G1 X-20.039 Y-1.298 E88.88222
G1 X-20.307 Y-1.567 E88.90775
G1 X-18.925 Y-14.679 F6000.000
G1 X-20.307 Y-16.061 E89.03922 F1800.000
G1 X-20.307 Y-16.824 E89.09055
G1 X-19.530 Y-16.047 E89.16450
G1 X-19.251 Y-16.530 E89.20207
G1 X-20.307 Y-17.587 E89.30260
G1 X-20.307 Y-18.350 E89.35392
G1 X-18.971 Y-17.014 E89.48101
G1 X-18.692 Y-17.497 E89.51859
G1 X-20.307 Y-19.112 E89.67224
G1 X-20.307 Y-19.875 E89.72357
G1 X-18.413 Y-17.981 E89.90380
G1 X-18.134 Y-18.465 E89.94137
G1 X-19.976 Y-20.307 E90.11667
G1 X-19.213 Y-20.307 E90.16800
G1 X-17.855 Y-18.948 E90.29728
G1 X-17.265 Y-19.122 F6000.000
G1 X-18.450 Y-20.307 E90.41006 F1800.000
G1 X-17.688 Y-20.307 E90.46139
G1 X-16.502 Y-19.122 E90.57417
G1 X-15.739 Y-19.122 E90.62549
G1 X-16.925 Y-20.307 E90.73827
G1 X-16.162 Y-20.307 E90.78960
G1 X-14.977 Y-19.122 E90.90238
G1 X-12.937 Y-17.082 F6000.000
G1 X-11.595 Y-15.740 E91.03008 F1800.000
G1 X-11.153 Y-16.061 E91.06682
G1 X-15.399 Y-20.307 E91.47083
G1 X-14.636 Y-20.307 E91.52215
G1 X-10.711 Y-16.382 E91.89561
G1 X-10.269 Y-16.703 E91.93236
G1 X-13.873 Y-20.307 E92.27527
G1 X-13.110 Y-20.307 E92.32660
G1 X-9.827 Y-17.024 E92.63897
G1 X-9.306 Y-17.266 E92.67763
G1 X-12.348 Y-20.307 E92.96704
G1 X-11.585 Y-20.307 E93.01836
G1 X-8.778 Y-17.501 E93.28541
G1 X-8.250 Y-17.736 E93.32428
G1 X-10.822 Y-20.307 E93.56896
G1 X-10.059 Y-20.307 E93.62029
G1 X-7.722 Y-17.971 E93.84261
G1 X-7.195 Y-18.206 E93.88148
G1 X-9.296 Y-20.307 E94.08144
G1 X-8.533 Y-20.307 E94.13277
G1 X-6.667 Y-18.441 E94.31037
G1 X-6.139 Y-18.676 E94.34924
G1 X-7.770 Y-20.307 E94.50448
G1 X-7.007 Y-20.307 E94.55581
G1 X-5.534 Y-18.834 E94.69597
G1 X-4.905 Y-18.968 E94.73924
G1 X-6.245 Y-20.307 E94.86668
G1 X-5.482 Y-20.307 E94.91801
G1 X-4.276 Y-19.101 E95.03272
G1 X-3.647 Y-19.235 E95.07600
G1 X-4.719 Y-20.307 E95.17799
G1 X-3.956 Y-20.307 E95.22931
G1 X-3.018 Y-19.369 E95.31858
G1 X-2.389 Y-19.503 E95.36185
G1 X-3.193 Y-20.307 E95.43840
G1 X-2.430 Y-20.307 E95.48972
G1 X-2.163 Y-20.040 E95.51515
G1 X-1.841 Y-19.951 F6000.000
G1 X1.841 Y-19.951 E96.03680 F1800.000
